tde/widget/wifi/icons/wifi-off.svg

﻿<?xml version="1.0" encoding="utf-8"?>
<!DOCTYPE svg PUBLIC "-//W3C//DTD SVG 1.1//EN" "http://www.w3.org/Graphics/SVG/1.1/DTD/svg11.dtd">
<svg xmlns="http://www.w3.org/2000/svg" xmlns:xlink="http://www.w3.org/1999/xlink" version="1.1" baseProfile="full" width="240" height="240" viewBox="0 0 24.00 24.00" enable-background="new 0 0 24.00 24.00" xml:space="preserve">
	<path fill="#ffffff" fill-opacity="1" stroke-width="0.2" stroke-linejoin="round" d="M 2.275,2.9978L 1.00125,4.2675L 2.47125,5.7425C 2.03625,6.01125 1.60625,6.29375 1.20125,6.60125L 2.9975,8.99875C 3.525,8.60375 4.0775,8.2475 4.65875,7.925L 6.885,10.1563C 6.1475,10.4975 5.44375,10.9125 4.8,11.3963L 6.60125,13.7987C 7.3775,13.2175 8.25625,12.7737 9.19875,12.4663L 11.7525,15.02C 10.4975,15.0738 9.34125,15.4937 8.39875,16.2013L 12.0025,21.0012L 14.4575,17.725L 17.735,21.0012L 18.9988,19.7213M 12.0025,2.9978C 9.85375,2.9978 7.8025,3.38354 5.89875,4.0725L 8.29125,6.465C 9.4775,6.1625 10.7175,6.00125 12.0025,6.00125C 15.3763,6.00125 18.4912,7.11375 21.0013,8.99875L 22.8025,6.60125C 19.79,4.34125 16.055,2.9978 12.0025,2.9978 Z M 12.0025,8.99875C 11.6212,8.99875 11.25,9.01875 10.8788,9.0525L 14.0675,12.2463C 15.2925,12.5337 16.4262,13.0662 17.4025,13.7987L 19.1988,11.3963C 17.1975,9.8925 14.7025,8.99875 12.0025,8.99875 Z "/>
</svg>

<svg xmlns="http://www.w3.org/2000/svg" baseProfile="full" width="240" height="240" viewBox="0 0 24 24" xml:space="preserve"><path fill="#fff" d="m2.275 2.998-1.274 1.27 1.47 1.474a16.03 16.03 0 0 0-1.27.86l1.796 2.397a14.42 14.42 0 0 1 1.662-1.074l2.226 2.231a11.54 11.54 0 0 0-2.085 1.24L6.601 13.8A8.951 8.951 0 0 1 9.2 12.466l2.553 2.554A5.983 5.983 0 0 0 8.4 16.201l3.604 4.8 2.454-3.276 3.278 3.276L19 19.721M12.003 2.998c-2.15 0-4.2.386-6.104 1.074L8.29 6.465a14.982 14.982 0 0 1 3.711-.464 14.93 14.93 0 0 1 9 2.998l1.8-2.398a17.93 17.93 0 0 0-10.8-3.603zm0 6c-.382 0-.753.02-1.124.055l3.189 3.193a8.966 8.966 0 0 1 3.335 1.553l1.796-2.403A11.946 11.946 0 0 0 12.002 9z"/></svg>
